svg/u1f6e9.svg

<svg viewBox="0 0 128 128" xmlns="http://www.w3.org/2000/svg">
  <path d="M78.92,78.13l1.63,4.32c0,0-2.5,1.19-2.19,4.76c0.31,3.57,2.98,5.57,5.26,5.88 c2.82,0.39,5.07-2.44,4.57-5.7c-0.5-3.26-2.75-5.13-2.75-5.13l-0.06-3.76L78.92,78.13z" fill="#858585"/>
  <path d="M28.67,26.96c0.06-0.33,4.03-3.91,6.89-6.23c2.87-2.32,4.56-3.93,5.24-3.91 c0.74,0.01,2.98,1.27,4.52,2.15c1.33,0.76,3.14,1.93,3.14,1.93l-2.87,5.07c0,0-10.2,12.24-10.37,12.13 C35.07,37.99,28.67,26.96,28.67,26.96z" fill="#00C1E9"/>
  <path d="M35.62,35.62c0,0,5.35-6.56,7.83-9.32c2.48-2.76,5.02-5.4,5.02-5.4s0.99,0.5,0.94,1.49 c-0.06,0.99-0.5,1.76-1.16,2.65c-0.66,0.88-9.87,12.74-9.87,12.74L35.62,35.62z" fill="#0D9ABB"/>
  <path d="M75.29,44.37c0,0,35.62-32.74,36.07-32.89s2,0.15,4.36,0.89c2.37,0.74,6.43,2.66,6.36,3.1 c-0.07,0.44-0.52,2.81-0.52,2.81S93.21,63.43,91.29,60.92C89.37,58.41,75.29,44.37,75.29,44.37z" fill="#00C1E9"/>
  <path d="M92.65,57.94c0,0,27.84-40.51,28.26-41.04c0.62-0.79,0.12-1.75-0.56-2.49 c-0.69-0.75-1.25-0.94-1.25-0.94s2.24,0.84,3.24,1.5c1.12,0.73,2,1.56,1.81,2.37c-0.19,0.81-28.81,44.33-28.93,44.08 S92.65,57.94,92.65,57.94z" fill="#0D9ABB"/>
  <path d="M14.86,10.01c0,0-0.86-0.67-1.34-0.1c-0.48,0.57,4.31,27.59,4.31,27.59l11.49,7.95l26.72,24.04 l24.8,9.85l5.8,1.89c0,0,5.48-3.73,5.48-3.96c0-0.23-5.7-17.73-5.7-17.73L33.58,39.81L14.86,10.01z" fill="#9A9A9A"/>
  <path d="M25.37,15.46c-1.05-1.15-10.5-5.45-10.5-5.45l14.46,31.27l1.9,2.13c0,0,6.16,6.22,12.63,11.09 s11.93,7.07,16.62,9.54c5.74,3.02,10.45,4.55,14.2,6.18c4.56,1.99,8.56,3.1,10.59,5.81c1.86,2.48,1.37,5.2,1.37,5.2 s3.79,1.73,8.43,2.79c4.64,1.07,14.76,2.36,17.35-3.73c2.59-6.09-1.07-12.33-9.89-17.58s-12.86-6.09-12.86-6.09l-2.44-6.77 c0,0-6.39-5.32-10.42-6.85c-4.03-1.52-21-4.57-21-4.57l-19.78-2.36C36.02,36.08,26.2,16.38,25.37,15.46z" fill="#C8C8C8"/>
  <path d="M53.52,39.51c-0.53,1.01,0.08,1.9,5.1,3.42c4.72,1.43,7.15,2.43,9.74,3.5 c2.59,1.07,6.24,3.2,8.29,3.8c2.05,0.61,4.57,0.84,6.01-0.99c0.87-1.1-0.15-3.12-3.2-4.95s-7.08-3.35-13.62-4.57 C59.3,38.52,54.28,38.06,53.52,39.51z" fill="#E0E0E0"/>
  <path d="M17.27,34.9c-0.6,0.12-12.85,13.98-13.02,14.5c-0.17,0.52,1.13,2.26,1.13,2.26l6.95,3.04l20.41-14.24 C32.73,40.46,18.14,34.73,17.27,34.9z" fill="#00C1E9"/>
  <path d="M4.25,49.4c0,0,6.92,3.42,8.31,3.25c1.39-0.17,20.21-12.19,20.21-12.19s1.89,1.3,0.78,2.74 c-1.11,1.43-18.78,12.91-20.8,12.78c-1.7-0.11-8.4-3.03-8.74-3.85C3.3,50.37,4.25,49.4,4.25,49.4z" fill="#0D9ABB"/>
  <path d="M54.22,67.71c-0.9,0.33-9.45,11.08-11.55,13.61c-1.85,2.23-22.86,26.7-23.49,27.88 c-0.63,1.18,1.02,2.67,1.02,2.67L32,116.59L70.07,85.3l8.23-10.83c0,0-5.49-3.17-12.18-4.67S55.09,67.4,54.22,67.71z" fill="#00C1E9"/>
  <path d="M78.29,74.47c0,0-44.87,39.81-45.9,40.07c-0.81,0.2-5-0.91-8.47-2.57c-2.96-1.41-4.73-2.77-4.73-2.77 s-1.26,1.42,0.31,3.62c1.57,2.2,10.77,6.05,12.42,5.82c1.65-0.24,4.32-2.91,6.6-4.8c2.28-1.89,41.99-35.78,41.99-35.78 s-0.04-1.25-0.55-2.04C79.26,74.92,78.29,74.47,78.29,74.47z" fill="#0D9ABB"/>
  <path d="M56.01,70.88c-1.24-0.62-2.65,0.94-3.85,2.48c-1.2,1.54-24.65,29.53-25.42,30.56 c-0.77,1.03-1.37,2.14-0.26,2.82c1.11,0.68,2.23-0.51,3.25-1.8c1.03-1.28,25.59-30.56,26.28-31.33S57.72,71.74,56.01,70.88z" fill="#B4DDFA"/>
  <path d="M46.76,46.65c-0.77-0.32-1.41,0.18-1.47,1.03c-0.06,0.85,0.29,4.1,0.46,4.59 c0.18,0.53,7.14,4.46,7.7,4.46c0.25,0-0.03-1.89-0.18-3.49c-0.21-2.24-0.32-3.81-0.57-4.2C52.53,48.77,47.43,46.93,46.76,46.65z" fill="#3B5361"/>
  <path d="M56.87,50.32c-1.18-0.39-0.85,0.18-0.82,1.14c0.01,0.51,0.75,6.26,0.81,6.65s0.08,0.93,1.3,1.52 c1.29,0.63,7.16,3.67,7.73,3.95c0.56,0.28,0.73-0.56,0.56-1.69s-0.94-7.31-1.16-7.71S57.52,50.54,56.87,50.32z" fill="#3B5361"/>
  <path d="M69.58,55.55c-0.62-0.23-1,0.21-0.82,1.04c0.13,0.62,1.41,8.01,1.52,8.63 c0.11,0.62,0.79,1.13,1.69,1.52c0.9,0.39,6.54,3.05,7.22,3.16s0.9-0.79,0.51-1.97c-0.39-1.18-2.04-6.54-3.71-8.74 C74.66,57.43,71.04,56.09,69.58,55.55z" fill="#3B5361"/>
  <path d="M86.53,50.06c-0.49,0.35-1.16,1.1-2.92,2.72c-2.03,1.86-4.28,2.95-4.2,4.16 c0.06,1.06,1.1,3.13,2.49,5.98c1.32,2.7,2.58,5.43,2.99,6.04c0.85,1.24,2.54,1.64,3.84,0.73s2.82-2.03,4.57-4.12 c1.75-2.09,2.26-3.33,2.2-5.08s-7.31-9.67-7.65-10.12C87.5,49.92,87.15,49.61,86.53,50.06z" fill="#3B5361"/>
  <path d="M107.6,97.14c0.96,1.18,9.05-3.67,13.33-11.11c4-6.96,6.23-15.75,3.56-15.82s-2.21,4.9-3.32,8.68 c-0.69,2.36-2.33,7.15-6.85,11.59C109.85,94.89,106.66,95.97,107.6,97.14z" fill="#E1E0DF"/>
  <path d="M117.03,60c0.46,0.76-5.78,1.85-12.22,10.59c-6.83,9.26-6.39,13.9-6.44,15.55 c-0.07,2.44-0.56,4.74-2.22,4.22c-1.15-0.36-1.95-2.61-0.47-8.83c1.48-6.22,5.83-13.51,10.71-17.22 C113.2,59.12,116.59,59.26,117.03,60z" fill="#E1E0DF"/>
  <path d="M111.85,73.92c0,0,1.11-4.3,3.92-8.22c2.81-3.92,5.48-6,6.52-5.92c1.04,0.07,1.48,0.81,1.48,0.81 l-7.63,15.88c0,0,0.57,0.7,1.07,1.52c0.61,1.01-0.33,2.59-0.33,2.59L110,82.36L99.7,97.91c0,0-1.78-0.3-1.63-2.44 c0.15-2.15,1.7-6.3,4.22-9.49s6.11-4.76,6.11-4.76l0.56-2.12c0,0-1.05-1.05-0.37-2.67C109.47,74.33,111.85,73.92,111.85,73.92z" fill="#799FAE"/>
  <path d="M114.23,74.93c0,0,0.62,0.45,1.07,0.8c0.45,0.35,0.92,0.82,0.92,0.82s3.26-3.81,5.1-7.59 c1.66-3.41,3.61-7.71,2.46-8.37c-1.16-0.66-5.1,4.96-6.56,7.72C115.75,71.07,114.23,74.93,114.23,74.93z" fill="#40717A"/>
  <path d="M108.59,76.44c0,0,0.83,2.91,3.27,3.6c3.08,0.86,5.36-2.07,5.36-2.07s1.29,1.94,0.75,3.56 c-0.57,1.69-3.78,2.45-5.08,2.51c-1.3,0.05-2.32-0.05-2.32-0.05s-1.41,4.59-3.89,8.22c-2.18,3.18-5.82,6.62-6.96,5.72 s1.42-5.35,3.18-8.09c2.32-3.62,5.95-6.7,5.95-6.7s-0.87-1.14-1.03-2.81C107.59,78.04,108.59,76.44,108.59,76.44z" fill="#40717A"/>
</svg>

<svg viewBox="0 0 128 128" xmlns="http://www.w3.org/2000/svg">
  <defs/>
  <path d="M78.92,78.13 L80.55,82.45 C80.55,82.45 78.05,83.64 78.36,87.21 C78.67,90.78 81.34,92.78 83.62,93.09 C86.44,93.48 88.69,90.65 88.19,87.39 C87.69,84.13 85.44,82.26 85.44,82.26 L85.38,78.5 L78.92,78.13 Z" fill="#858585"/>
  <path d="M28.67,26.96 C28.73,26.63 32.7,23.05 35.56,20.73 C38.43,18.41 40.12,16.8 40.8,16.82 C41.54,16.83 43.78,18.09 45.32,18.97 C46.65,19.73 48.46,20.9 48.46,20.9 L45.59,25.97 C45.59,25.97 35.39,38.21 35.22,38.1 C35.07,37.99 28.67,26.96 28.67,26.96 Z" fill="#00C1E9"/>
  <path d="M35.62,35.62 C35.62,35.62 40.97,29.06 43.45,26.3 C45.93,23.54 48.47,20.9 48.47,20.9 C48.47,20.9 49.46,21.4 49.41,22.39 C49.35,23.38 48.91,24.15 48.25,25.04 C47.59,25.92 38.38,37.78 38.38,37.78 L35.62,35.62 Z" fill="#0D9ABB"/>
  <path d="M75.29,44.37 C75.29,44.37 110.91,11.63 111.36,11.48 C111.81,11.33 113.36,11.63 115.72,12.37 C118.09,13.11 122.15,15.03 122.08,15.47 C122.01,15.91 121.56,18.28 121.56,18.28 C121.56,18.28 93.21,63.43 91.29,60.92 C89.37,58.41 75.29,44.37 75.29,44.37 Z" fill="#00C1E9"/>
  <path d="M92.65,57.94 C92.65,57.94 120.49,17.43 120.91,16.9 C121.53,16.11 121.03,15.15 120.35,14.41 C119.66,13.66 119.1,13.47 119.1,13.47 C119.1,13.47 121.34,14.31 122.34,14.97 C123.46,15.7 124.34,16.53 124.15,17.34 C123.96,18.15 95.34,61.67 95.22,61.42 C95.1,61.17 92.65,57.94 92.65,57.94 Z" fill="#0D9ABB"/>
  <path d="M14.86,10.01 C14.86,10.01 14,9.34 13.52,9.91 C13.04,10.48 17.83,37.5 17.83,37.5 L29.32,45.45 L56.04,69.49 L80.84,79.34 L86.64,81.23 C86.64,81.23 92.12,77.5 92.12,77.27 C92.12,77.04 86.42,59.54 86.42,59.54 L33.58,39.81 L14.86,10.01 Z" fill="#9A9A9A"/>
  <path d="M25.37,15.46 C24.32,14.31 14.87,10.01 14.87,10.01 L29.33,41.28 L31.23,43.41 C31.23,43.41 37.39,49.63 43.86,54.5 C50.33,59.37 55.79,61.57 60.48,64.04 C66.22,67.06 70.93,68.59 74.68,70.22 C79.24,72.21 83.24,73.32 85.27,76.03 C87.13,78.51 86.64,81.23 86.64,81.23 C86.64,81.23 90.43,82.96 95.07,84.02 C99.71,85.09 109.83,86.38 112.42,80.29 C115.01,74.2 111.35,67.96 102.53,62.71 C93.71,57.46 89.67,56.62 89.67,56.62 L87.23,49.85 C87.23,49.85 80.84,44.53 76.81,43 C72.78,41.48 55.81,38.43 55.81,38.43 L36.03,36.07 C36.02,36.08 26.2,16.38 25.37,15.46 Z" fill="#C8C8C8"/>
  <path d="M53.52,39.51 C52.99,40.52 53.6,41.41 58.62,42.93 C63.34,44.36 65.77,45.36 68.36,46.43 C70.95,47.5 74.6,49.63 76.65,50.23 C78.7,50.84 81.22,51.07 82.66,49.24 C83.53,48.14 82.51,46.12 79.46,44.29 C76.41,42.46 72.38,40.94 65.84,39.72 C59.3,38.52 54.28,38.06 53.52,39.51 Z" fill="#E0E0E0"/>
  <path d="M17.27,34.9 C16.67,35.02 4.42,48.88 4.25,49.4 C4.08,49.92 5.38,51.66 5.38,51.66 L12.33,54.7 L32.74,40.46 C32.73,40.46 18.14,34.73 17.27,34.9 Z" fill="#00C1E9"/>
  <path d="M4.25,49.4 C4.25,49.4 11.17,52.82 12.56,52.65 C13.95,52.48 32.77,40.46 32.77,40.46 C32.77,40.46 34.66,41.76 33.55,43.2 C32.44,44.63 14.77,56.11 12.75,55.98 C11.05,55.87 4.35,52.95 4.01,52.13 C3.3,50.37 4.25,49.4 4.25,49.4 Z" fill="#0D9ABB"/>
  <path d="M54.22,67.71 C53.32,68.04 44.77,78.79 42.67,81.32 C40.82,83.55 19.81,108.02 19.18,109.2 C18.55,110.38 20.2,111.87 20.2,111.87 L32,116.59 L70.07,85.3 L78.3,74.47 C78.3,74.47 72.81,71.3 66.12,69.8 C59.43,68.3 55.09,67.4 54.22,67.71 Z" fill="#00C1E9"/>
  <path d="M78.29,74.47 C78.29,74.47 33.42,114.28 32.39,114.54 C31.58,114.74 27.39,113.63 23.92,111.97 C20.96,110.56 19.19,109.2 19.19,109.2 C19.19,109.2 17.93,110.62 19.5,112.82 C21.07,115.02 30.27,118.87 31.92,118.64 C33.57,118.4 36.24,115.73 38.52,113.84 C40.8,111.95 80.51,78.06 80.51,78.06 C80.51,78.06 80.47,76.81 79.96,76.02 C79.26,74.92 78.29,74.47 78.29,74.47 Z" fill="#0D9ABB"/>
  <path d="M56.01,70.88 C54.77,70.26 53.36,71.82 52.16,73.36 C50.96,74.9 27.51,102.89 26.74,103.92 C25.97,104.95 25.37,106.06 26.48,106.74 C27.59,107.42 28.71,106.23 29.73,104.94 C30.76,103.66 55.32,74.38 56.01,73.61 C56.7,72.84 57.72,71.74 56.01,70.88 Z" fill="#B4DDFA"/>
  <path d="M46.76,46.65 C45.99,46.33 45.35,46.83 45.29,47.68 C45.23,48.53 45.58,51.78 45.75,52.27 C45.93,52.8 52.89,56.73 53.45,56.73 C53.7,56.73 53.42,54.84 53.27,53.24 C53.06,51 52.95,49.43 52.7,49.04 C52.53,48.77 47.43,46.93 46.76,46.65 Z" fill="#3B5361"/>
  <path d="M56.87,50.32 C55.69,49.93 56.02,50.5 56.05,51.46 C56.06,51.97 56.8,57.72 56.86,58.11 C56.92,58.5 56.94,59.04 58.16,59.63 C59.45,60.26 65.32,63.3 65.89,63.58 C66.45,63.86 66.62,63.02 66.45,61.89 C66.28,60.76 65.51,54.58 65.29,54.18 C65.07,53.78 57.52,50.54 56.87,50.32 Z" fill="#3B5361"/>
  <path d="M69.58,55.55 C68.96,55.32 68.58,55.76 68.76,56.59 C68.89,57.21 70.17,64.6 70.28,65.22 C70.39,65.84 71.07,66.35 71.97,66.74 C72.87,67.13 78.51,69.79 79.19,69.9 C79.87,70.01 80.09,69.11 79.7,67.93 C79.31,66.75 77.66,61.39 75.99,59.19 C74.66,57.43 71.04,56.09 69.58,55.55 Z" fill="#3B5361"/>
  <path d="M86.53,50.06 C86.04,50.41 85.37,51.16 83.61,52.78 C81.58,54.64 79.33,55.73 79.41,56.94 C79.47,58 80.51,60.07 81.9,62.92 C83.22,65.62 84.48,68.35 84.89,68.96 C85.74,70.2 87.43,70.6 88.73,69.69 C90.03,68.78 91.55,67.66 93.3,65.57 C95.05,63.48 95.56,62.24 95.5,60.49 C95.44,58.74 88.19,50.82 87.85,50.37 C87.5,49.92 87.15,49.61 86.53,50.06 Z" fill="#3B5361"/>
  <path d="M107.6,97.14 C108.56,98.32 116.65,93.47 120.93,86.03 C124.93,79.07 127.16,70.28 124.49,70.21 C121.82,70.14 122.28,75.11 121.17,78.89 C120.48,81.25 118.84,86.04 114.32,90.48 C109.85,94.89 106.66,95.97 107.6,97.14 Z" fill="#E1E0DF"/>
  <path d="M117.03,60 C117.49,60.76 111.25,61.85 104.81,70.59 C97.98,79.85 98.42,84.49 98.37,86.14 C98.3,88.58 97.81,90.88 96.15,90.36 C95,90 94.2,87.75 95.68,81.53 C97.16,75.31 101.51,68.02 106.39,64.31 C113.2,59.12 116.59,59.26 117.03,60 Z" fill="#E1E0DF"/>
  <path d="M111.85,73.92 C111.85,73.92 112.96,69.62 115.77,65.7 C118.58,61.78 121.25,59.7 122.29,59.78 C123.33,59.85 123.77,60.59 123.77,60.59 L116.14,76.47 C116.14,76.47 116.71,77.17 117.21,77.99 C117.82,79 116.88,80.58 116.88,80.58 L110,82.36 L99.7,97.91 C99.7,97.91 97.92,97.61 98.07,95.47 C98.22,93.32 99.77,89.17 102.29,85.98 C104.81,82.79 108.4,81.22 108.4,81.22 L108.96,79.1 C108.96,79.1 107.91,78.05 108.59,76.43 C109.47,74.33 111.85,73.92 111.85,73.92 Z" fill="#799FAE"/>
  <path d="M114.23,74.93 C114.23,74.93 114.85,75.38 115.3,75.73 C115.75,76.08 116.22,76.55 116.22,76.55 C116.22,76.55 119.48,72.74 121.32,68.96 C122.98,65.55 124.93,61.25 123.78,60.59 C122.62,59.93 118.68,65.55 117.22,68.31 C115.75,71.07 114.23,74.93 114.23,74.93 Z" fill="#40717A"/>
  <path d="M108.59,76.44 C108.59,76.44 109.42,79.35 111.86,80.04 C114.94,80.9 117.22,77.97 117.22,77.97 C117.22,77.97 118.51,79.91 117.97,81.53 C117.4,83.22 114.19,83.98 112.89,84.04 C111.59,84.09 110.57,83.99 110.57,83.99 C110.57,83.99 109.16,88.58 106.68,92.21 C104.5,95.39 100.86,98.83 99.72,97.93 C98.58,97.03 101.14,92.58 102.9,89.84 C105.22,86.22 108.85,83.14 108.85,83.14 C108.85,83.14 107.98,82 107.82,80.33 C107.59,78.04 108.59,76.44 108.59,76.44 Z" fill="#40717A"/>
</svg>
